src/assets/svg/island.svg

<svg width="322" height="318" viewBox="0 0 322 318" fill="none" xmlns="http://www.w3.org/2000/svg">
<path d="M181.257 313.053C188.693 304.827 193.408 296.216 195.74 287.665C207.335 290.04 219.926 289.627 231.65 287.089C252.531 284.802 270.185 271.75 278.97 253.588C279.56 252.549 280.132 251.517 280.702 250.49C284.798 243.104 288.723 236.029 297.711 228.97C304.438 223.562 312.384 219.887 320.854 218.266C319.377 216.515 317.817 214.804 316.173 213.15C306.284 203.204 295.561 197.587 284.935 195.654V172.819C288.196 167.363 292.092 162.04 298.856 156.727C305.584 151.32 313.529 147.645 322 146.023C320.523 144.273 318.963 142.561 317.319 140.908C307.217 130.748 296.244 125.105 285.394 123.292C294.128 96.9973 283.771 65.0544 265.377 49.6768C258.981 44.3274 253.018 41.3934 247.241 38.5505C239.673 34.8261 232.423 31.2583 224.931 22.6213C219.2 16.1629 215.133 8.39646 213.086 0C211.418 1.56817 209.792 3.21652 208.228 4.94673C198.725 15.4598 193.668 26.6007 192.346 37.4402H175.21C168.445 34.0673 161.894 30.4004 155.146 22.6213C149.415 16.1629 145.348 8.39646 143.301 0C141.632 1.56817 140.006 3.21652 138.443 4.94673C128.94 15.4598 123.882 26.6007 122.561 37.4402H122.334C109.517 35.1955 95.7962 35.7474 83.5087 38.6179C79.7916 39.3667 76.1992 40.4606 72.7659 41.8649C64.3634 45.0426 57.1671 49.4433 52.1634 54.8652C46.5072 60.9956 43.2797 66.8144 40.1526 72.4522C36.0558 79.8382 32.1313 86.9138 23.1436 93.9728C16.4163 99.3806 8.47051 103.056 0 104.677C1.47743 106.427 3.03694 108.139 4.68114 109.792C14.4417 119.609 25.016 125.21 35.5066 127.213V157.22C32.5377 161.804 28.8674 166.306 23.144 170.802C16.4167 176.209 8.47092 179.884 0.00040724 181.506C1.47784 183.256 3.03735 184.967 4.68154 186.621C14.1782 196.173 24.4451 201.733 34.6558 203.872C32.7331 215.417 33.5026 227.477 36.4978 238.377C41.0134 262.965 60.4832 282.304 85.104 286.568C88.3111 288.835 91.518 291.629 94.7705 295.379C100.502 301.837 104.569 309.603 106.616 318C108.284 316.432 109.91 314.783 111.474 313.053C118.973 304.757 123.705 296.069 126.016 287.447H156.094C158.9 289.551 161.709 292.099 164.553 295.379C170.285 301.837 174.352 309.604 176.399 318C178.067 316.432 179.693 314.783 181.257 313.053Z" fill="white"/>
</svg>

<svg width="322" height="318" fill="none" xmlns="http://www.w3.org/2000/svg"><path d="M181.257 313.053c7.436-8.226 12.151-16.837 14.483-25.388 11.595 2.375 24.186 1.962 35.91-.576 20.881-2.287 38.535-15.339 47.32-33.501.59-1.039 1.162-2.071 1.732-3.098 4.096-7.386 8.021-14.461 17.009-21.52a52.768 52.768 0 0 1 23.143-10.704 84.98 84.98 0 0 0-4.681-5.116c-9.889-9.946-20.612-15.563-31.238-17.496v-22.835c3.261-5.456 7.157-10.779 13.921-16.092A52.794 52.794 0 0 1 322 146.023a84.964 84.964 0 0 0-4.681-5.115c-10.102-10.16-21.075-15.803-31.925-17.616 8.734-26.295-1.623-58.238-20.017-73.615-6.396-5.35-12.359-8.284-18.136-11.127-7.568-3.724-14.818-7.292-22.31-15.929A52.993 52.993 0 0 1 213.086 0a85.383 85.383 0 0 0-4.858 4.947c-9.503 10.513-14.56 21.654-15.882 32.493H175.21c-6.765-3.373-13.316-7.04-20.064-14.819A52.993 52.993 0 0 1 143.301 0a84.74 84.74 0 0 0-4.858 4.947C128.94 15.46 123.882 26.6 122.561 37.44h-.227c-12.817-2.244-26.538-1.693-38.825 1.178a59.298 59.298 0 0 0-10.743 3.247c-8.403 3.178-15.599 7.578-20.603 13-5.656 6.13-8.883 11.95-12.01 17.587-4.097 7.386-8.022 14.462-17.01 21.52A52.772 52.772 0 0 1 0 104.678a85.043 85.043 0 0 0 4.681 5.115c9.76 9.817 20.335 15.418 30.826 17.421v30.007c-2.97 4.584-6.64 9.086-12.363 13.582A52.792 52.792 0 0 1 0 181.506a85.353 85.353 0 0 0 4.682 5.115c9.496 9.552 19.763 15.112 29.974 17.251-1.923 11.545-1.153 23.605 1.842 34.505 4.515 24.588 23.985 43.927 48.606 48.191 3.207 2.267 6.414 5.061 9.666 8.811A52.982 52.982 0 0 1 106.617 318a85.4 85.4 0 0 0 4.858-4.947c7.499-8.296 12.231-16.984 14.542-25.606h30.078c2.806 2.104 5.615 4.652 8.459 7.932A52.983 52.983 0 0 1 176.399 318a85.4 85.4 0 0 0 4.858-4.947z" fill="#fff"/></svg>
